src/components/Click2Call/icons/phone.svg

<svg width="36" height="18" viewBox="0 0 36 18" fill="none" xmlns="http://www.w3.org/2000/svg">
<path fill-rule="evenodd" clip-rule="evenodd" d="M9 0H27C31.9706 0 36 4.02944 36 9C36 13.9706 31.9706 18 27 18H9C4.02944 18 0 13.9706 0 9C0 4.02944 4.02944 0 9 0ZM12.09 3.27698C11.4179 3.50114 10.9277 4.20757 11.0088 4.93687C11.5959 10.2174 15.785 14.41 21.0617 14.9988C21.7695 15.0197 22.4388 14.7711 22.6968 13.9965L22.9548 13.2219C23.1016 12.7811 22.8797 12.3022 22.4485 12.1296L19.9052 11.1116C19.2537 10.8508 18.5096 11.0036 18.0135 11.5001L17.5 12.0139C16.0477 11.1696 14.8358 9.95683 13.992 8.50358L14.5055 7.9898C15.0016 7.49334 15.1543 6.74877 14.8938 6.09687L13.8764 3.55184C13.704 3.12042 13.2253 2.89829 12.7848 3.04522L12.09 3.27698ZM19 8.5C19 7.67157 18.3284 7 17.5 7C17.2239 7 17 7.22386 17 7.5C17 7.77614 17.2239 8 17.5 8C17.7761 8 18 8.22386 18 8.5C18 8.77614 18.2239 9 18.5 9C18.7761 9 19 8.77614 19 8.5ZM21 8.5C21 6.567 19.433 5 17.5 5C17.2239 5 17 5.22386 17 5.5C17 5.77614 17.2239 6 17.5 6C18.8807 6 20 7.11929 20 8.5C20 8.77614 20.2239 9 20.5 9C20.7761 9 21 8.77614 21 8.5ZM23 8.5C23 5.46243 20.5376 3 17.5 3C17.2239 3 17 3.22386 17 3.5C17 3.77614 17.2239 4 17.5 4C19.9853 4 22 6.01472 22 8.5C22 8.77614 22.2239 9 22.5 9C22.7761 9 23 8.77614 23 8.5Z" fill="#249D3D"/>
</svg>

<svg height="18" width="36" xmlns="http://www.w3.org/2000/svg" fill="none" viewBox="0 0 36 18">
  <path fill="#249D3D" fill-rule="evenodd" d="M9 0h18a9 9 0 110 18H9A9 9 0 119 0zm3.09 3.277c-.672.224-1.162.93-1.081 1.66.587 5.28 4.776 9.473 10.053 10.062.707.02 1.377-.228 1.635-1.003l.258-.774a.878.878 0 00-.506-1.092l-2.544-1.018a1.753 1.753 0 00-1.892.388l-.513.514a9.698 9.698 0 01-3.508-3.51l.513-.514a1.756 1.756 0 00.389-1.893l-1.018-2.545a.877.877 0 00-1.091-.507l-.695.232zM19 8.5A1.5 1.5 0 0017.5 7a.5.5 0 000 1 .5.5 0 01.5.5.5.5 0 001 0zm2 0A3.5 3.5 0 0017.5 5a.5.5 0 000 1A2.5 2.5 0 0120 8.5a.5.5 0 001 0zm2 0A5.5 5.5 0 0017.5 3a.5.5 0 000 1A4.5 4.5 0 0122 8.5a.5.5 0 001 0z" clip-rule="evenodd"/>
</svg>
